app/img/m-logo-1.svg

<svg width="30" height="37" viewBox="0 0 30 37" fill="none" xmlns="http://www.w3.org/2000/svg">
<path fill-rule="evenodd" clip-rule="evenodd" d="M19.3993 36.7967V27.8447C19.3993 27.8447 18.1277 27.8959 18.1277 22.7293C18.1277 21.9236 19.2912 21.0796 20.0669 20.5872C22.0698 19.3084 21.7646 15.6956 22.5784 15.6956C24.7529 15.6956 24.4859 13.7006 24.4859 12.4984C24.4859 11.1173 22.5784 12.4984 22.5784 12.4984V4.82529H7.31882V12.4984C7.31882 12.4984 5.41137 11.5649 5.41137 13.1379C5.41137 14.065 5.04259 15.0562 6.683 15.6956C7.95463 16.1943 8.78755 18.6306 9.36615 20.0437C9.94474 21.4568 11.6424 21.4952 11.6424 22.7421C11.6424 27.3524 10.4979 27.8575 10.4979 27.8575V36.8095L19.3993 36.7967Z" fill="white"/>
<path fill-rule="evenodd" clip-rule="evenodd" d="M16.2203 36.7968H19.3993V27.8447C19.3993 27.8447 18.1277 27.8959 18.1277 22.7293C18.1277 21.9236 19.2913 21.0796 20.067 20.5872C22.0698 19.3084 21.7646 15.6956 22.5784 15.6956C24.7529 15.6956 24.4859 13.7006 24.4859 12.4984C24.4859 11.1173 22.5784 12.4984 22.5784 12.4984L22.6547 11.9933L22.5784 4.82529H17.4919C17.4919 4.82529 20.2132 8.60431 20.0352 13.1379C19.9016 16.4949 17.3965 20.7087 15.5844 22.0899C15.1521 22.416 16.2203 36.7968 16.2203 36.7968Z" fill="#F1EEE9"/>
<path fill-rule="evenodd" clip-rule="evenodd" d="M23.3287 12.0892C23.3287 12.0892 27.0419 0.349274 14.3128 0.349274C11.5724 0.349274 9.31529 1.19971 8.25983 2.3379C7.58586 3.06045 7.78297 3.9045 7.43327 4.71018C6.79745 6.1489 6.03447 6.40467 6.08534 7.73468C6.16868 9.22355 6.34494 10.7057 6.61307 12.1723C6.61307 12.2682 7.17258 12.6263 7.31882 12.5432C7.46506 12.4601 7.31882 11.9549 7.3824 11.827C7.57951 10.1965 7.3824 5.46471 10.4979 5.46471C11.8586 5.46471 13.499 6.90982 14.9486 6.74357C16.2203 6.5901 17.5555 5.46471 18.7635 5.46471C21.4276 5.46471 22.0507 10.1198 22.5784 11.859C22.6 12.0267 22.6 12.1965 22.5784 12.3641C22.5784 12.4729 22.5784 12.4537 22.5784 12.4984C22.5784 12.5432 23.1507 12.1531 23.3287 12.0892Z" fill="#39322B"/>
<path fill-rule="evenodd" clip-rule="evenodd" d="M10.4916 11.0405C9.83405 10.9622 9.19144 10.7877 8.58411 10.5226C8.82473 10.2693 9.1297 10.0872 9.46595 9.99588C9.8022 9.90458 10.1569 9.90761 10.4916 10.0046C11.6805 10.2796 13.2764 10.6441 13.0348 11.0405C12.8314 11.341 11.3944 11.1812 10.4916 11.0405Z" fill="#39322B"/>
<path fill-rule="evenodd" clip-rule="evenodd" d="M19.4057 11.0405C20.0632 10.9622 20.7058 10.7877 21.3132 10.5226C21.0725 10.2693 20.7676 10.0872 20.4313 9.99588C20.0951 9.90458 19.7404 9.90761 19.4057 10.0046C18.2167 10.2796 16.6208 10.6441 16.8625 11.0405C17.0659 11.341 18.5029 11.1812 19.4057 11.0405Z" fill="#39322B"/>
<path fill-rule="evenodd" clip-rule="evenodd" d="M14.9296 16.9745C16.2012 16.9745 16.2012 16.5972 16.2012 16.5972V17.2942C16.2012 17.379 16.1677 17.4603 16.1081 17.5203C16.0485 17.5802 15.9676 17.6139 15.8833 17.6139H13.9949C13.9106 17.6139 13.8297 17.5802 13.7701 17.5203C13.7105 17.4603 13.677 17.379 13.677 17.2942V16.61C13.677 16.61 13.6516 16.9745 14.9296 16.9745Z" fill="#F1EEE9"/>
<path fill-rule="evenodd" clip-rule="evenodd" d="M19.3993 32.9601V36.7967H10.4979V32.9601C10.4979 32.9601 12.7805 36.1573 14.9486 36.1573C17.2249 36.1573 19.3993 32.9601 19.3993 32.9601Z" fill="#BED6CE"/>
<path fill-rule="evenodd" clip-rule="evenodd" d="M10.4979 27.8447C9.48356 28.3772 8.4185 28.8056 7.31883 29.1236C5.65299 29.6032 3.6756 29.763 2.23229 31.0419C0.324844 32.7108 0.324844 36.7967 0.324844 36.7967H10.4979V27.8447Z" fill="#009F90"/>
<path fill-rule="evenodd" clip-rule="evenodd" d="M19.3993 27.8447C20.4137 28.3772 21.4788 28.8056 22.5784 29.1236C24.2443 29.6032 26.2217 29.763 27.665 31.0419C29.5724 32.7108 29.5724 36.7967 29.5724 36.7967H19.3993V27.8447Z" fill="#009F90"/>
<path fill-rule="evenodd" clip-rule="evenodd" d="M10.4979 27.8447C10.4979 27.8447 8.48237 28.2412 7.95464 29.1236C7.54136 29.8142 8.59045 31.0419 8.59045 31.0419V32.9602C8.59045 32.9602 7.31882 33.638 7.31882 34.239C7.31882 34.8401 8.25983 35.4156 8.59045 35.9079C8.68217 36.0378 8.73145 36.1931 8.73145 36.3523C8.73145 36.5116 8.68217 36.6669 8.59045 36.7967H10.4979V27.8447Z" fill="#006C71"/>
<path fill-rule="evenodd" clip-rule="evenodd" d="M19.3993 27.8447C19.3993 27.8447 21.4149 28.2412 21.9426 29.1236C22.3559 29.8142 21.3068 31.0419 21.3068 31.0419V32.9602C21.3068 32.9602 22.5784 33.638 22.5784 34.239C22.5784 34.8401 21.6247 35.4156 21.3259 35.9079C21.2341 36.0378 21.1849 36.1931 21.1849 36.3523C21.1849 36.5116 21.2341 36.6669 21.3259 36.7967H19.4184L19.3993 27.8447Z" fill="#006C71"/>
</svg>

<svg width="30" height="37" fill="none" xmlns="http://www.w3.org/2000/svg"><path fill-rule="evenodd" clip-rule="evenodd" d="M19.4 36.797v-8.952s-1.272.05-1.272-5.116c0-.805 1.163-1.65 1.939-2.142 2.003-1.279 1.698-4.891 2.511-4.891 2.175 0 1.908-1.995 1.908-3.198 0-1.38-1.908 0-1.908 0V4.825H7.318v7.673s-1.907-.933-1.907.64c0 .927-.368 1.918 1.272 2.558 1.272.498 2.105 2.935 2.683 4.348.579 1.413 2.276 1.451 2.276 2.698 0 4.61-1.144 5.116-1.144 5.116v8.951l8.901-.012z" fill="#fff"/><path fill-rule="evenodd" clip-rule="evenodd" d="M16.22 36.797h3.18v-8.952s-1.272.05-1.272-5.116c0-.805 1.163-1.65 1.939-2.142 2.003-1.279 1.698-4.891 2.511-4.891 2.175 0 1.908-1.995 1.908-3.198 0-1.38-1.908 0-1.908 0l.077-.505-.077-7.168h-5.086s2.721 3.78 2.543 8.313c-.133 3.357-2.639 7.57-4.45 8.952-.433.326.635 14.707.635 14.707z" fill="#F1EEE9"/><path fill-rule="evenodd" clip-rule="evenodd" d="M23.329 12.09S27.042.35 14.313.35c-2.74 0-4.998.85-6.053 1.988-.674.722-.477 1.567-.827 2.372-.636 1.439-1.399 1.695-1.348 3.025a35.8 35.8 0 00.528 4.437c0 .096.56.454.706.371.146-.083 0-.588.063-.716.198-1.63 0-6.362 3.116-6.362 1.36 0 3.001 1.445 4.45 1.279 1.272-.154 2.607-1.28 3.816-1.28 2.664 0 3.287 4.656 3.814 6.395.022.168.022.338 0 .505v.134c0 .045.573-.345.75-.409z" fill="#39322B"/><path fill-rule="evenodd" clip-rule="evenodd" d="M10.492 11.04a6.769 6.769 0 01-1.908-.517 1.905 1.905 0 011.908-.518c1.188.275 2.784.64 2.543 1.035-.204.301-1.64.141-2.543 0zM19.406 11.04a6.77 6.77 0 001.907-.517 1.905 1.905 0 00-1.907-.518c-1.19.275-2.785.64-2.543 1.035.203.301 1.64.141 2.543 0z" fill="#39322B"/><path fill-rule="evenodd" clip-rule="evenodd" d="M14.93 16.974c1.271 0 1.271-.377 1.271-.377v.697a.32.32 0 01-.318.32h-1.888a.317.317 0 01-.318-.32v-.684s-.025.364 1.253.364z" fill="#F1EEE9"/><path fill-rule="evenodd" clip-rule="evenodd" d="M19.4 32.96v3.837h-8.902V32.96s2.283 3.197 4.45 3.197c2.277 0 4.451-3.197 4.451-3.197z" fill="#BED6CE"/><path fill-rule="evenodd" clip-rule="evenodd" d="M10.498 27.845c-1.014.532-2.08.96-3.18 1.279-1.665.48-3.642.639-5.086 1.918C.325 32.71.325 36.797.325 36.797h10.173v-8.952zM19.4 27.845c1.014.532 2.079.96 3.178 1.279 1.666.48 3.644.639 5.087 1.918 1.907 1.669 1.907 5.755 1.907 5.755H19.4v-8.952z" fill="#009F90"/><path fill-rule="evenodd" clip-rule="evenodd" d="M10.498 27.845s-2.016.396-2.543 1.279c-.414.69.635 1.918.635 1.918v1.918s-1.271.678-1.271 1.279c0 .601.94 1.177 1.271 1.669a.77.77 0 010 .889h1.908v-8.952zM19.4 27.845s2.015.396 2.543 1.279c.413.69-.636 1.918-.636 1.918v1.918s1.271.678 1.271 1.279c0 .601-.953 1.177-1.252 1.669a.77.77 0 000 .889h-1.908l-.019-8.952z" fill="#006C71"/></svg>
